picto/cycling-prohibited-left.svg

<svg class="color-immutable" width="24" height="24" viewBox="0 0 24 24" fill="none" xmlns="http://www.w3.org/2000/svg"><path d="M0 22.5V1.5C0 0.675 0.675 0 1.5 0H22.5C23.325 0 24 0.675 24 1.5V22.5C24 23.325 23.325 24 22.5 24H1.5C0.675 24 0 23.325 0 22.5Z" fill="#2D327D"/><path d="M14 11.734L15.811 12.367C15.85 12.382 15.893 12.388 15.935 12.388C16.06 12.388 16.176 12.326 16.246 12.222L16.653 11.619C16.686 11.569 16.703 11.51 16.703 11.452C16.703 11.286 16.569 11.151 16.404 11.151H14.1C13.934 11.151 13.799 11.286 13.799 11.452C13.798 11.579 13.88 11.692 14 11.734Z" fill="white"/><path d="M7.66503 12.726H8.04003C8.20503 12.726 8.34003 12.591 8.34003 12.426C8.34003 12.26 8.20503 12.125 8.04003 12.125H7.66503C7.50003 12.125 7.36603 12.259 7.36603 12.426C7.36603 12.591 7.50003 12.726 7.66503 12.726Z" fill="white"/><path d="M20.39 19.313C20.785 18.727 21.015 18.022 21.015 17.263C21.015 15.233 19.369 13.587 17.34 13.587C16.755 13.587 16.179 13.726 15.659 13.994L14.939 12.838H13.914L3.70801 2.631L2.64801 3.692L10.107 11.151H7.66501C7.50001 11.151 7.36601 11.286 7.36601 11.452C7.36601 11.617 7.50001 11.752 7.66501 11.752H10.29V11.335L11.794 12.839H9.09001L8.37001 13.995C7.85101 13.728 7.27501 13.588 6.69001 13.588C4.66101 13.588 3.01501 15.234 3.01501 17.264C3.01501 19.292 4.66101 20.939 6.69001 20.939C8.71801 20.939 10.364 19.292 10.364 17.264C10.364 16.1 9.81401 15.006 8.87901 14.311L9.28201 13.663L11.248 16.586C11.112 16.758 11.039 16.969 11.039 17.189C11.039 17.727 11.476 18.164 12.013 18.164C12.392 18.164 12.737 17.944 12.897 17.601H13.679C13.853 19.492 15.439 20.939 17.338 20.939C18.065 20.939 18.743 20.726 19.314 20.361L19.987 21.034L21.047 19.973L20.39 19.313ZM9.76601 17.263C9.76601 18.96 8.38801 20.338 6.69101 20.338C4.99401 20.338 3.61501 18.96 3.61501 17.263C3.61501 15.565 4.99301 14.188 6.69101 14.188C7.16401 14.188 7.62901 14.297 8.05301 14.506L6.43601 17.105C6.40701 17.152 6.39201 17.207 6.39201 17.264C6.39201 17.429 6.52601 17.564 6.69201 17.564C6.79601 17.564 6.89201 17.51 6.94601 17.422L8.56301 14.824C9.32101 15.406 9.76601 16.307 9.76601 17.263ZM14.747 13.663L14.759 13.682L14.744 13.667L14.747 13.663ZM12.284 16.25C12.197 16.225 12.106 16.213 12.014 16.213C11.924 16.213 11.834 16.225 11.747 16.25L9.85601 13.438H12.394L13.459 14.503L12.284 16.25ZM13.675 17.001H12.973C12.943 16.85 12.878 16.707 12.783 16.586L13.892 14.936L14.244 15.288C13.918 15.797 13.719 16.384 13.675 17.001ZM14.679 15.724L15.956 17.001H14.276C14.315 16.545 14.456 16.111 14.679 15.724ZM17.341 20.338C15.773 20.338 14.456 19.158 14.284 17.6H16.557L18.881 19.924C18.427 20.187 17.902 20.338 17.341 20.338ZM19.956 18.879L16.63 15.553L15.979 14.507C16.402 14.298 16.869 14.189 17.342 14.189C19.039 14.189 20.416 15.566 20.416 17.264C20.415 17.856 20.246 18.409 19.956 18.879Z" fill="white"/><path d="M3.70801 2.631L2.64801 3.692L19.99 21.034L21.05 19.973L3.70801 2.631Z" fill="#EB0000"/></svg>

<svg class="color-immutable" width="24" height="24" viewBox="0 0 24 24" fill="none" xmlns="http://www.w3.org/2000/svg"><g clip-path="url(#a)"><path d="M0 22.5v-21C0 .675.675 0 1.5 0h21c.825 0 1.5.675 1.5 1.5v21c0 .825-.675 1.5-1.5 1.5h-21C.675 24 0 23.325 0 22.5Z" fill="#2D327D"/><path d="m14 11.734 1.811.633a.374.374 0 0 0 .435-.145l.407-.603a.3.3 0 0 0-.249-.468H14.1a.301.301 0 0 0-.301.301.298.298 0 0 0 .201.282ZM7.665 12.726h.375a.3.3 0 0 0 0-.601h-.375a.3.3 0 0 0 0 .601Z" fill="#fff"/><path d="M20.39 19.313a3.676 3.676 0 0 0-4.731-5.319l-.72-1.156h-1.025L3.708 2.631l-1.06 1.061 7.459 7.459H7.665a.3.3 0 0 0 0 .601h2.625v-.417l1.504 1.504H9.09l-.72 1.156a3.673 3.673 0 0 0-5.355 3.269 3.676 3.676 0 0 0 3.675 3.675 3.676 3.676 0 0 0 2.189-6.628l.403-.648 1.966 2.923a.975.975 0 1 0 1.649 1.015h.782a3.675 3.675 0 0 0 5.635 2.76l.673.673 1.06-1.061-.657-.66Zm-10.624-2.05a3.077 3.077 0 0 1-6.151 0 3.076 3.076 0 0 1 4.438-2.757l-1.617 2.599a.302.302 0 0 0 .256.459c.104 0 .2-.054.254-.142l1.617-2.598a3.075 3.075 0 0 1 1.203 2.439Zm4.981-3.6.012.019-.015-.015.003-.004Zm-2.463 2.587a.978.978 0 0 0-.537 0l-1.891-2.812h2.538l1.065 1.065-1.175 1.747Zm1.391.751h-.702a.983.983 0 0 0-.19-.415l1.109-1.65.352.352a3.657 3.657 0 0 0-.569 1.713Zm1.004-1.277 1.277 1.277h-1.68c.039-.456.18-.89.403-1.277Zm2.662 4.614a3.076 3.076 0 0 1-3.057-2.738h2.273l2.324 2.324a3.06 3.06 0 0 1-1.54.414Zm2.615-1.459-3.326-3.326-.651-1.046a3.075 3.075 0 0 1 3.977 4.372Z" fill="#fff"/><path d="m3.708 2.631-1.06 1.061L19.99 21.034l1.06-1.061L3.708 2.631Z" fill="#EB0000"/></g><defs><clipPath id="a"><path fill="#fff" d="M0 0h24v24H0z"/></clipPath></defs></svg>
